X: 36610
T: Shamrocks In The Galax
R: reel
M: 4/4
K: Bminor
|:BAFA BAFA|BABc dcde|fedc BcdB|A2F2 A2A2|
BAFA BAFA|BABc dcde|fedc dcBA|1 B4 B4:|2 B4 B2c2||
|:dBAF ABde|fefg a2aa|gfed cdef|gfed cdec|
dBAF ABde|fefg a2aa|gfed cdec|1 d4 d4:|2 d2f2 edc2||

